X:1
T:Loudac, riquenie : Rubans et dentelles
E:12
Z:Roger Ngaret (94-95)
R:
C:Trad.
S:
A:Bretagne
Q:1/4=100
M:2/4
L:1/16
K:G
E2 | D2D2 "G"G2G2 | B2B2 "F"A4 | (3c2c2c2 "Am"B2B2 |1 \
A2A2 "G"G2 :|2 A2A2 G4 ||
Q:1/4=168
|: (3B2B2B2 d2B2 | G2B2 B2A2 | (3B2B2B2 d2B2 | G2B2 B2A2 | \
(3B2B2B2 d2c2 | "F"B2A2 "G"G2 :|
%%rm
%%rm  1. Derrire chez nous y'a un tang   ]
%%it     Rendez vos rubans aux marchands   ] bis
%%rm
%%it     Rendez vos rubans mesd'moiselles  ]
%%it     Rendez vos rubans vos dentelles   ] bis
%%it     Rendez vos rubans aux marchands   ]
%%rm
%%rm  2. Les cans d'mon pre s'y vont baignant
%%rm
%%rm  3. Le fils du roi s'en va chassant
%%rm
%%rm  4. Il a tir si fort dedans
%%rm
%%rm  5. Qu'on a pu ren s'mette sous la dent
%%rm
%%rm     SUITE TRADITIONNELLE ...
%%rm
%%rm  5. Que la plume en vola t'au vent
%%rm
%%rm  6. Aprs la plume on voit le sang
%%rm
%%rm  7. Aprs le sang l'or et l'argent
%%rm
%%rm  8. Que ferons-nous de tant d'argent
%%rm
%%rm  9. Nous le donn'rons aux pauvres gens.
